src/images/icons/icon-cross.svg

<svg width="11" height="12" viewBox="0 0 11 12" fill="none" xmlns="http://www.w3.org/2000/svg">
<path d="M11 1.35693L10 0.356934L5.5 4.85693L1 0.356934L0 1.35693L4.5 5.85693L0 10.3569L1 11.3569L5.5 6.85693L10 11.3569L11 10.3569L6.5 5.85693L11 1.35693Z" fill="black"/>
</svg>

<svg xmlns="http://www.w3.org/2000/svg" width="11" height="12" fill="none"><path fill="#000" d="m11 1.36-1-1-4.5 4.5L1 .36l-1 1 4.5 4.5-4.5 4.5 1 1 4.5-4.5 4.5 4.5 1-1-4.5-4.5 4.5-4.5Z"/></svg>
